X: 1
T: Morrison Measure             Play 5 rounds
T: 5x32R 5C (Goldring)
P: Paul and Wendy Ridley
C: Donald Ridley
C: arr. T. Traub 10-16-2014
R: Reel
M: 4/4
L: 1/8
K: A
|: cB|"A"A2 a2 "E"efed|"A"c2 A2 A2 dc|"B7"B2 b2 BcBA|"E"G2 E2 E2 cB|"A"A2 a2 "E"efed|"A"cdec dcBA|"D"F2 A2 "E"BAGF|"A"E2 "D"A2 "A"A2 :|
|: GF|"A"E2 A2 cdcB|"A"A2 E2 E4|"Bm"F2 B2 dcBA|"E"G2 e2 e4|"A"E2 A2 cdcB|"A"Acea "D"fadf|"A"e2 A2 "E"BAGF|"A"E2 "D"A2 "A"A2 :|

